src/22x22/places/folder-gruvbox-original-yellow-private.svg

<?xml version="1.0" encoding="UTF-8"?>
<svg width="22" height="22" version="1" xmlns="http://www.w3.org/2000/svg">
 <rect x="1" y="8.5" width="20" height="12" rx="1" ry="1" opacity=".2"/>
 <path d="m1 16c0 0.554 0.446 1 1 1h18c0.554 0 1-0.446 1-1v-11c0-0.554-0.446-1-1-1h-9c-1.5 0-2-2-3.5-2h-5.5c-0.554 0-1 0.446-1 1" fill="#b57614"/>
 <rect x="1" y="7.5" width="20" height="12" rx="1" ry="1" opacity=".2"/>
 <rect x="3" y="6" width="16" height="8" rx="1" ry="1" fill="#f3deaa"/>
 <rect x="1" y="8" width="20" height="12" rx="1" ry="1" fill="#fabd2f"/>
 <path d="m2 2c-0.554 0-1 0.446-1 1v0.5c0-0.554 0.446-1 1-1h5.5c1.5 0 2 2 3.5 2h9c0.554 0 1 0.446 1 1v-0.5c0-0.554-0.446-1-1-1h-9c-1.5 0-2-2-3.5-2z" fill="#f3deaa" opacity=".1"/>
 <path d="m9 11c-1.6569 0-3 1.343-3 3s1.3431 3 3 3c1.27 0 2.401-0.803 2.824-2h2.176v1h2v-1h1v-2h-5.176c-0.423-1.197-1.554-2-2.824-2zm0 2c0.552 0 1 0.448 1 1s-0.448 1-1 1c-0.5523 0-1-0.448-1-1s0.4477-1 1-1z" fill="#473c29"/>
</svg>

<svg xmlns="http://www.w3.org/2000/svg" width="22" height="22" version="1">
 <rect style="opacity:0.2" width="20" height="12" x="1" y="8.5" rx="1" ry="1"/>
 <path style="fill:#b57614" d="M 1,16 C 1,16.554 1.446,17 2,17 H 20 C 20.554,17 21,16.554 21,16 V 5 C 21,4.446 20.554,4 20,4 H 11 C 9.5,4 9,2 7.5,2 H 2 C 1.446,2 1,2.446 1,3"/>
 <rect style="opacity:0.2" width="20" height="12" x="1" y="7.5" rx="1" ry="1"/>
 <rect style="fill:#f3deaa" width="16" height="8" x="3" y="6" rx="1" ry="1"/>
 <rect style="fill:#fabd2f" width="20" height="12" x="1" y="8" rx="1" ry="1"/>
 <path style="opacity:0.1;fill:#f3deaa" d="M 2,2 C 1.446,2 1,2.446 1,3 V 3.5 C 1,2.946 1.446,2.5 2,2.5 H 7.5 C 9,2.5 9.5,4.5 11,4.5 H 20 C 20.554,4.5 21,4.946 21,5.5 V 5 C 21,4.446 20.554,4 20,4 H 11 C 9.5,4 9,2 7.5,2 Z"/>
 <path style="fill:#473c29" d="M 9,11 C 7.3431,11 6,12.343 6,14 6,15.657 7.3431,17 9,17 10.27,17 11.401,16.197 11.824,15 H 14 V 16 H 16 V 15 H 17 V 13 H 11.824 C 11.401,11.803 10.27,11 9,11 Z M 9,13 C 9.552,13 10,13.448 10,14 10,14.552 9.552,15 9,15 8.4477,15 8,14.552 8,14 8,13.448 8.4477,13 9,13 Z"/>
</svg>
